img/calendar.svg

<svg width="24" height="24" viewBox="0 0 24 24" fill="none" xmlns="http://www.w3.org/2000/svg">
<g clip-path="url(#clip0_1_224)">
<path d="M19 2H18V1C18 0.734784 17.8946 0.48043 17.7071 0.292893C17.5196 0.105357 17.2652 0 17 0C16.7348 0 16.4804 0.105357 16.2929 0.292893C16.1054 0.48043 16 0.734784 16 1V2H8V1C8 0.734784 7.89464 0.48043 7.70711 0.292893C7.51957 0.105357 7.26522 0 7 0C6.73478 0 6.48043 0.105357 6.29289 0.292893C6.10536 0.48043 6 0.734784 6 1V2H5C3.67441 2.00159 2.40356 2.52888 1.46622 3.46622C0.528882 4.40356 0.00158786 5.67441 0 7L0 19C0.00158786 20.3256 0.528882 21.5964 1.46622 22.5338C2.40356 23.4711 3.67441 23.9984 5 24H19C20.3256 23.9984 21.5964 23.4711 22.5338 22.5338C23.4711 21.5964 23.9984 20.3256 24 19V7C23.9984 5.67441 23.4711 4.40356 22.5338 3.46622C21.5964 2.52888 20.3256 2.00159 19 2ZM2 7C2 6.20435 2.31607 5.44129 2.87868 4.87868C3.44129 4.31607 4.20435 4 5 4H19C19.7956 4 20.5587 4.31607 21.1213 4.87868C21.6839 5.44129 22 6.20435 22 7V8H2V7ZM19 22H5C4.20435 22 3.44129 21.6839 2.87868 21.1213C2.31607 20.5587 2 19.7956 2 19V10H22V19C22 19.7956 21.6839 20.5587 21.1213 21.1213C20.5587 21.6839 19.7956 22 19 22Z" fill="#EFBE4C"/>
<path d="M12 16.5C12.8284 16.5 13.5 15.8284 13.5 15C13.5 14.1716 12.8284 13.5 12 13.5C11.1716 13.5 10.5 14.1716 10.5 15C10.5 15.8284 11.1716 16.5 12 16.5Z" fill="#EFBE4C"/>
<path d="M7 16.5C7.82843 16.5 8.5 15.8284 8.5 15C8.5 14.1716 7.82843 13.5 7 13.5C6.17157 13.5 5.5 14.1716 5.5 15C5.5 15.8284 6.17157 16.5 7 16.5Z" fill="#EFBE4C"/>
<path d="M17 16.5C17.8284 16.5 18.5 15.8284 18.5 15C18.5 14.1716 17.8284 13.5 17 13.5C16.1716 13.5 15.5 14.1716 15.5 15C15.5 15.8284 16.1716 16.5 17 16.5Z" fill="#EFBE4C"/>
</g>
<defs>
<clipPath id="clip0_1_224">
<rect width="24" height="24" fill="white"/>
</clipPath>
</defs>
</svg>

<svg width="24" height="24" fill="none" xmlns="http://www.w3.org/2000/svg"><g clip-path="url(#clip0_1_224)" fill="#EFBE4C"><path d="M19 2h-1V1a1 1 0 00-2 0v1H8V1a1 1 0 00-2 0v1H5a5.006 5.006 0 00-5 5v12a5.006 5.006 0 005 5h14a5.006 5.006 0 005-5V7a5.006 5.006 0 00-5-5zM2 7a3 3 0 013-3h14a3 3 0 013 3v1H2V7zm17 15H5a3 3 0 01-3-3v-9h20v9a3 3 0 01-3 3z"/><path d="M12 16.5a1.5 1.5 0 100-3 1.5 1.5 0 000 3zm-5 0a1.5 1.5 0 100-3 1.5 1.5 0 000 3zm10 0a1.5 1.5 0 100-3 1.5 1.5 0 000 3z"/></g><defs><clipPath id="clip0_1_224"><path fill="#fff" d="M0 0h24v24H0z"/></clipPath></defs></svg>
